shape-polygon-plus.svg

<svg fill="currentColor" viewBox="0 0 24 24"><path d="M17 15.7V13h2v4l-9 4-7-7 4-9h4v2H8.3l-2.9 6.6 5 5zM22 5v2h-3v3h-2V7h-3V5h3V2h2v3z"/></svg>

<svg  viewBox="0 0 24 24" fill="currentColor"><path  d="M17,15.7V13H19V17L10,21L3,14L7,5H11V7H8.3L5.4,13.6L10.4,18.6L17,15.7M22,5V7H19V10H17V7H14V5H17V2H19V5H22Z"/></svg>
